X:1
T:Ingers Brudvals
C:Pelle Svensson
R:Vals
O:Sverige
M:3/4
L:1/8
K:D
A,2 |: D4 F2 | A4 d2 | B3 G B2 | A4 F2 | D3 E F2 |
G3 F ED | C3 E C2 | A,4 A,2 | D4 F2 | A4 d2 | B3 G B |
A4 F2 | D3 E F2 | G3 F ED | C3 E C2 |[1 D4 A,2 :|[2 D4 A2 ]|
|: f3 e d2 | f3 e d2 | e4 c2 | A3 B c2 | d3 c B2 | d3 c B2 |
c4 A2 | F4 F2 | G3 A B2 | A2 c2 e2 | d2 f2 a2 | g2 b2 g2 |
f3 e d2 | c2 B2 c2 | d3 d d2 |[1 d4 A2 :|[2 d6]|
